polaris-icons/icons/newicons/PageMajor.svg

<svg width="20" height="20" viewBox="0 0 20 20" fill="none" xmlns="http://www.w3.org/2000/svg">
<path fill-rule="evenodd" clip-rule="evenodd" d="M6.75 3.5C6.05964 3.5 5.5 4.05964 5.5 4.75V15.25C5.5 15.9404 6.05964 16.5 6.75 16.5H13.25C13.9404 16.5 14.5 15.9404 14.5 15.25V8.75H11C10.0335 8.75 9.25 7.9665 9.25 7V3.5H6.75ZM10.75 4.56066L13.4393 7.25H11C10.8619 7.25 10.75 7.13807 10.75 7V4.56066ZM4 4.75C4 3.23122 5.23122 2 6.75 2H10C10.1989 2 10.3897 2.07902 10.5303 2.21967L15.7803 7.46967C15.921 7.61032 16 7.80109 16 8V15.25C16 16.7688 14.7688 18 13.25 18H6.75C5.23122 18 4 16.7688 4 15.25V4.75Z" fill="black"/>
</svg>

<svg viewBox="0 0 20 20" fill="none" xmlns="http://www.w3.org/2000/svg"><path fill-rule="evenodd" clip-rule="evenodd" d="M6.75 3.5c-.69 0-1.25.56-1.25 1.25v10.5c0 .69.56 1.25 1.25 1.25h6.5c.69 0 1.25-.56 1.25-1.25v-6.5h-3.5a1.75 1.75 0 0 1-1.75-1.75v-3.5h-2.5Zm4 1.06 2.69 2.69h-2.44a.25.25 0 0 1-.25-.25v-2.44Zm-6.75.19a2.75 2.75 0 0 1 2.75-2.75h3.25a.75.75 0 0 1 .53.22l5.25 5.25c.141.14.22.331.22.53v7.25a2.75 2.75 0 0 1-2.75 2.75h-6.5a2.75 2.75 0 0 1-2.75-2.75v-10.5Z" fill="#5C5F62"/></svg>
